svgs/light/code-branch.svg

<svg xmlns="http://www.w3.org/2000/svg" viewBox="0 0 448 512"><!--! Font Awesome Pro 6.5.1 by @fontawesome - https://fontawesome.com License - https://fontawesome.com/license (Commercial License) Copyright 2023 Fonticons, Inc. --><path d="M80 128a48 48 0 1 0 0-96 48 48 0 1 0 0 96zm80-48c0 38.7-27.5 71-64 78.4V273.6c20.3-20.7 48.7-33.6 80-33.6h96c44.2 0 80-35.8 80-80v-1.6c-36.5-7.4-64-39.7-64-78.4c0-44.2 35.8-80 80-80s80 35.8 80 80c0 38.7-27.5 71-64 78.4V160c0 61.9-50.1 112-112 112H176c-44.2 0-80 35.8-80 80v1.6c36.5 7.4 64 39.7 64 78.4c0 44.2-35.8 80-80 80s-80-35.8-80-80c0-38.7 27.5-71 64-78.4V352 158.4C27.5 151 0 118.7 0 80C0 35.8 35.8 0 80 0s80 35.8 80 80zm208 48a48 48 0 1 0 0-96 48 48 0 1 0 0 96zM80 480a48 48 0 1 0 0-96 48 48 0 1 0 0 96z"/></svg>

<svg xmlns="http://www.w3.org/2000/svg" viewBox="0 0 448 512"><!--! Font Awesome Pro 6.1.1 by @fontawesome - https://fontawesome.com License - https://fontawesome.com/license (Commercial License) Copyright 2022 Fonticons, Inc. --><path d="M160 80C160 118.7 132.5 150.1 96 158.4V273.6C116.3 252.9 144.7 240 176 240H272C316.2 240 352 204.2 352 160V158.4C315.5 150.1 288 118.7 288 80C288 35.82 323.8 0 368 0C412.2 0 448 35.82 448 80C448 118.7 420.5 150.1 384 158.4V160C384 221.9 333.9 272 272 272H176C131.8 272 96 307.8 96 352V353.6C132.5 361 160 393.3 160 432C160 476.2 124.2 512 80 512C35.82 512 0 476.2 0 432C0 393.3 27.48 361 64 353.6V158.4C27.48 150.1 0 118.7 0 80C0 35.82 35.82 0 80 0C124.2 0 160 35.82 160 80V80zM80 128C106.5 128 128 106.5 128 80C128 53.49 106.5 32 80 32C53.49 32 32 53.49 32 80C32 106.5 53.49 128 80 128zM368 128C394.5 128 416 106.5 416 80C416 53.49 394.5 32 368 32C341.5 32 320 53.49 320 80C320 106.5 341.5 128 368 128zM80 480C106.5 480 128 458.5 128 432C128 405.5 106.5 384 80 384C53.49 384 32 405.5 32 432C32 458.5 53.49 480 80 480z"/></svg>
